X:9
T:Est il conclud (Pavane)
R:Pavane
C:Claude Gervaise
N:
O:France
Z:<anamnese@laposte.net> -- http://anamnese.fr.st
M:4/4
L:1/4
Q:1/4=120
K:C
V:1
G2 GG | A/2G/2F/2E/2 D E | FE G3/2 F/2 | E4 | G2 GG |\
A2 A G-|G/2F/2 D E2 | F4 :|
|: A2 AA | G2 G E | FE G3/2 F/2 | E4 |
AAA | G2 F E G3/2 F/2 |
|: E2 E E F3/2 E/2 | D2 D E F3/2 E/2 | D2 D C G3/2 F/2 :| E2 E z6 |]
V:2
c2 cc | AA d G | A G/2F/2 G2 | G4 |c2 cc | A/2G/2A/2B/2 c3/2 _B/2 | A _B A2 |\
A4 :|
|: c2 cc | c2 c G | A G/2F/2 G2 | G4 |


